X: 3
T: Carolan's Concerto
R: reel
M: 4/4
L: 1/8
K: Dmaj
(3ABc|"D"d2 dd d2 cB|"A"ABGA "D"F2A2|"A"E2A2"D"D2A2|"G"Bcde "A"dcBA|
"D"d2a2 fgaf|"A7"efge "D"fgaf|"G"gabg "D"fdfa|"Em"gfed "A"dcBA|
"G"BdBd gdgd|"D"Ad Ad fAfA|"Em"GBGB efed|"A7"c2 Bc A3G|
"D"FGAF "A/E"EFGE|"D/F#"FGAF "G"GABG|"D/A"A2d2 "A7"fedc|"D"d6 :||
(3ABc|"G"d2b2 agfe|"D"d2a2 "A"c2a2|"G"B2 gB "A"ABcd|"A7"ecBA"D"d2 df|
"D"edcB "A"caaa|"G"Bggg "D"Afff|edcB "A"caaa|"G"Bggg bgbg|
"D"afaf "A"edcB|cABG AFGE|"D"DAFA DAFA|"Em"GEBE GEBE|
"D/F#"FAdc BAGF|"G"EFGA Bcde|"D/A"A2d2 "A7"fedc|"D"d6:||


Tune 788	Setting 788

